media/theme/theme-4/space.svg

<svg fill="none" height="10" viewBox="0 0 114 10" width="114" xmlns="http://www.w3.org/2000/svg"><path clip-rule="evenodd" d="m114 3.71845v.07127c-.096.08026-.151.21471-.235.30881-.261.29134-.561.60954-.857.85516-.932.77456-1.921 1.43952-3.082 1.97162-.597.27344-1.26.40243-1.926.59386-.381.10951-.795.04592-1.199.14253-.344.08229-1.177.08594-1.52 0-.359-.0901-.682-.01663-1.006-.11877-.874-.27555-1.678-.59707-2.376-1.06895-.15-.10215-.319-.13562-.47-.23755-.455-.30631-.952-.54353-1.4131-.85516-1.4054-.94928-2.9973-1.86473-4.5806-2.58924-.4118-.18845-.8711-.23334-1.3484-.35632-.1974-.05086-.4371-.00107-.6208-.04751-.2033-.0514-.8752.0273-1.0488.07127-.2374.06009-.4401.0085-.6635.07126-.5737.16113-1.1683.25994-1.691.45133-.2671.09783-.5175.12198-.7705.23755-1.3147.60066-2.6296 1.16373-3.7886 1.94787-.3517.23788-.7404.35698-1.0917.59386-.4912.33119-1.0406.56548-1.5411.90267-.2408.16232-.5989.43687-.8776.5226.0071.00791.0144.01585.0215.02376.089.08931.2003.10725.321.16628.2956.14459.5846.32173.899.47509.4942.24101.997.471 1.5839.64137.8021.23279 2.0707-.13961 2.6542-.35632 2.1304-.79129 3.8626-1.93599 5.7364-3.01682.7142-.41202 1.3878-.739 2.2688-.99769.3907-.11466.9996-.14224 1.3913 0 .2494.09053.5174.20904.7278.35632.3812.26669.7573.65683.9418 1.14021.2632.69007.1355 2.18171-.1499 2.70802-.492.90742-1.3114 1.36113-2.3758 1.63906-.2999.07831-.6998.00793-.9418-.07127-.777-.25417-1.4157-.65384-1.6482-1.49653-.1948-.70639.2372-1.5597.6421-1.68657.1225-.03839.2408.02627.3211.04751.1135.18654.2552.24365.2569.57011-.1854.1583-.3256.38933-.4923.57011.0066.6713.899 1.04203 1.5411.80765.7821-.28551 1.5756-2.00875.6849-2.75552-.1828-.15336-.3989-.29841-.6421-.38008-.2609-.08767-.6158.00347-.8134.07127-.5467.18547-1.0828.40759-1.6053.66512-.9298.45566-1.8177 1.06851-2.7398 1.52029-.7082.34701-1.4142.69-2.1404 1.02145-.6368.29056-1.326.40339-2.0548.59386-.2704.07062-.5343.0295-.8348.04751-1.1257.06746-1.7674-.34128-2.5257-.71264-.3147-.15409-.6116-.28127-.899-.47509-.2432-.1639-.8239-.6394-1.0916-.68888-.0942.07956-.2239.08713-.3425.14253-.3005.14036-.6143.24562-.9418.38007-1.0642.43689-2.2785.71228-3.7244.71264-.6772.00016-1.3408.02598-1.8836-.14253-.5985-.18509-1.1849-.41525-1.7551-.68888-.3042-.14574-.6069-.29016-.9418-.42758-.0743-.03043-.2235-.13343-.3425-.09502-.0747.02409-.0959.09806-.1926.11877v-.02375c.0616-.04963.0978-.10186.107-.21379-.6306-.43196-2.0142-1.0167-3.0609-.71264-.7827.22743-1.4711.55253-2.1618.87892-.5362.25329-1.0927.44471-1.6267.68888-.5865.26814-1.234.38653-1.8836.57011l-.8134.09501c-.2541.06488-.9217-.06088-1.113-.11877-.1713-.05181-.3093-.03584-.4709-.09502-.7329-.26842-1.4196-.61391-1.9906-1.06895-.2267-.18053-.5758-.68826-.8134-.7839-.0927.15153-.2536.26969-.3853.38008-.1355.11361-.2451.29218-.3853.40382-.2123.16923-.434.27294-.6635.42758-.3872.26078-.8592.473-1.3271.64137-1.0792.38839-2.5233.15555-3.4675-.19003-.6293-.23042-1.2089-.39535-1.798-.66513-.7941-.36358-1.601-.76682-2.4401-1.06895-.2491-.08972-.5319-.10214-.7919-.16628-.2145-.0529-.5236.00475-.685.04751l-.3424.04751c-.3716.11731-.7361.26011-1.0917.42758-.9285.43525-1.8027.85818-2.7397 1.28274-.4292.19443-.92.27555-1.3913.40383-.4264.11613-1.4502.15742-1.905.04751-.3902-.09431-.7462-.0178-1.1131-.11878-.8752-.24084-1.7453-.38195-2.5257-.73639-.2969-.13483-.6113-.23894-.9204-.38007-.1402-.06402-.2778-.16084-.4495-.19003-.0732.07995-.1656.10254-.2568.16628-.3168.22117-.6514.41656-.9846.64137-.627.42283-1.3562.84982-2.0977 1.11646-.1847.06651-.3501.04387-.5565.09502-.3493.08658-.8709.11333-1.2414.02375-.2931-.07083-.5416-.01786-.8134-.09502-1.8393-.52188-3.3635-1.26305-4.8802-2.1379-.8657-.4993-1.7276-.94826-2.6756-1.37776-.3373-.15281-.8825-.44269-1.3912-.28506-.4597.14253-.8506.49593-1.0061.97394-.2183.67144.3763 1.76767.7064 1.99538.6338.43727 1.7944.23293 1.8836-.61762-.0721-.07789-.4979-.57386-.5137-.64137-.0659-.2803.3006-.57389.5565-.57011l.1712.07126c.1674.11479.3685.38794.4495.59387.229.58217-.0174 1.30588-.2568 1.66281-.5864.87417-2.0161 1.19724-3.1251.66513-.6765-.32463-1.3175-.76397-1.6053-1.52029-.0904-.23755-.1156-.51666-.1712-.7839-.0072-.24546-.0143-.49093-.0215-.73639 0-1.39603.6676-2.04051 1.5412-2.44671 1.1868-.55201 2.6502.19241 3.4675.66512.6666.38554 1.3536.68687 1.9906 1.11647.4825.32543 1.0032.58094 1.5197.87891 1.0122.58396 2.0655 1.09295 3.2749 1.47278.2374.07457.4944.08233.7277.14253l.6208.02375c.2637.06013.692-.02088.9204-.09502.7102-.23041 1.2671-.52554 1.8621-.85516.2402-.13302.4763-.26759.7064-.38007.1239-.06053.3048-.0849.3639-.21379-.1822-.04772-.3658-.20837-.5137-.30881-.2383-.16181-.4992-.27253-.7278-.42758-.4983-.3381-1.0629-.5416-1.5625-.87892-.4965-.33574-1.0112-.6372-1.5411-.90267-.7207-.35349-1.4243-.7289-2.1619-1.06895-.4632-.21355-.9737-.34784-1.4555-.5226-.582-.2111-1.2153-.2398-1.8408-.40382-.2626-.06889-.5593-.00613-.8133-.07127-.2856-.07319-1.0401.03473-1.2629.09502-.2645.07157-.4867.05395-.7277.14253-.6776.25034-1.336.56013-1.9693.92642-.9647.55674-1.9554 1.09171-2.8681 1.71033-.2594.17578-.5317.27567-.792.45133-.9852.66477-2.0535 1.27878-3.2321 1.71033-1.32705.48597-3.85609.30714-5.09423-.14253-.94131-.34185-1.82475-.70751-2.58994-1.23524-.43915-.30286-.85656-.5716-1.26286-.90267-.21227-.17295-.391123-.41905-.599324-.59386-.186218-.1564-.6608402-.5602-.706346-.83141.281211.04176.472075.34074.663537.49885.460193.38007.922163.77259 1.412693 1.11646.75254.52754 1.62659.90267 2.54713 1.23523.45559.16457.9035.15821 1.41269.28506.39142.09751 1.24657.18236 1.69095.07126h.36387c.38922-.0982.82245-.04824 1.19865-.16628 1.75618-.5511 3.06858-1.5721 4.45208-2.54173.7186-.5036 1.4616-.95983 2.1833-1.44903.2997-.20305.6179-.31871.9204-.52259.6332-.42687 1.3758-.74547 2.1404-1.02145.1967-.07098.3668-.0615.578-.11877.2102-.05701.9334-.185286 1.1986-.118773l1.1344.095013c.7218.18612 1.4551.21023 2.1191.45134.4991.18122 1.0182.3251 1.4983.54635 1.5244.70264 2.945 1.48416 4.3665 2.30419.7693.44378 1.5529.85671 2.3331 1.3065.1314.0758.7194.46426.8133.42758.1327-.03563.231-.13516.3425-.19004.4536-.22329.8829-.47316 1.3271-.68888.3333-.16181.6883-.25132 1.0702-.35632l.4067-.02375c.2055-.04988.6081-.05202.8134 0l.7705.02375c.381.09683.7836.08566 1.1344.21379.5232.19147 1.0314.4298 1.5198.71264.1438.08297.7964.53849.899.49884.251-.07202.4972-.33018.7063-.47509.61-.42294 1.2641-.85041 1.9906-1.11646.1909-.06988.3613-.04159.5779-.09502.1925-.0475.8765-.10763 1.1131-.0475.3277.08328.6504.05938.9418.16628 1.5389.56502 2.8619 1.33766 4.4949 1.82909 1.3241.39849 2.9536-.40211 3.4033-1.21148.1879-.33816.2209-1.03876.107-1.49653-.2498-1.00339-.6802-1.7284-1.5411-2.04289-.9701-.35437-1.7301.18942-2.0548.87892-.0454.09616-.1103.15467-.1285.28505.2102.14918.658.61734.7278.90268.1145.46763-.4215.90357-.8134.76014-.7198-.26344-1.213-1.5301-.8348-2.51798.4361-1.139121 1.3166-1.716355 2.4616-2.0666387.3388-.1036409.8767-.05888744 1.1986.0237545.3054.0783902.5595.0665122.8348.1662812.6995.253437 1.2855.695294 1.8194 1.140213.1498.16628.2996.33257.4494.49885.0803.12003.1336.31132.2569.38007.1064-.35684.5542-.76119.8134-.97393.5959-.489348 1.2115-.91004 2.0334-1.163975 1.4491-.44763 3.1651.346364 3.7244 1.211475.2652.41015.7164 1.29838.4923 2.06665-.0934.31959-.2479.54794-.4067.78389-.1237.18384-.4576.57648-.8134.47509-.1122-.03556-.2151-.10076-.2996-.19003-.0581-.05993-.134-.13417-.1713-.21379-.3061-.65544.6066-.96657.685-1.35401-.1169-.13129-.1599-.34584-.2569-.49884-.2209-.34848-.5739-.54861-1.006-.66513-.3795-.10231-.8331.04404-1.0916.16628-.7629.36083-1.14.99144-1.3699 1.94787-.0779.32446-.1092.9054 0 1.23523.0618.18705.1757.37129.2782.5226.1084.15975.2965.26722.4495.38008.5857.43214 1.7516.88065 2.7826.5701 1.6332-.49186 2.9549-1.26746 4.4949-1.82909.2916-.1063.6139-.08367.9418-.16628.2036-.05131.7477-.0196.9204.02375.2402.06029.4422-.00171.6422.07126.6245.22805 1.2245.56553 1.7551.92643.1954.13302.5266.46611.7706.49884.1995-.19982.7312-.41218 1.006-.54635.1871-.09138.4018-.2184.5993-.30881.3031-.13863.6509-.19322.9846-.28505l.8348-.09502h.4923c.3373-.08105 1.0223-.04062 1.3271.04751.7386.21355 1.3433.52887 1.9478.87892.2583.14965.7973.34681.9846.54635 2.4236-1.14872 4.576-2.67557 6.9778-3.84823.7154-.34919 1.4371-.56818 2.2261-.85516.6094-.22163 1.302-.31525 1.9692-.49885.2939-.08088.5698-.02024.8776-.09501.3818-.092813 1.2444-.107945 1.6267 0 .4842.13668.975.22668 1.4127.42758 1.4572.66885 2.7616 1.51439 4.024 2.3992.8466.59351 1.7086 1.10366 2.5686 1.68657.667.45238 1.365.84578 2.183 1.14022.382.13744.797.08615 1.22.19003.343.084.755.07127 1.156.07127h.385c.485-.12282.998-.05701 1.456-.19004 1.048-.30475 2.042-.60598 2.868-1.16397.555-.3748 1.093-.76644 1.605-1.18773.254-.20837.519-.62557.878-.68888zm-38.7634 1.63906c-.0666.043-.1841-.00128-.2783.02376-.1804.04805-.3868.07813-.5779.14253-.607.20457-1.2222.38855-1.691.73639v.0475c.2543.16061.5159.36388.792.49885.3769.18433.7988.30116 1.2201.42758 1.058.31745 2.808.14284 3.7243-.16628.3213-.10839.633-.17897.9204-.28506.1096-.04038.2171-.02869.2997-.09501-.2288-.11403-.4354-.28712-.6421-.42758-.4087-.27758-1.02-.56021-1.4984-.73639-.6162-.22695-1.4818-.16512-2.2688-.16629zm-38.6778.02376c-.1188.07601-.5859.05901-.7492.11877-.4341.15892-.8587.39613-1.2414.61762-.1696.09815-.5339.20353-.578.42758.1811.04276.3489.15203.5137.21379.3265.12212.6631.2064.9846.30881 1.2169.38772 3.0664.46186 4.2595.02375.3795-.13936.7032-.24588 1.006-.45133.1011-.06849.1852-.03563.2141-.19004-.1847-.10096-.3624-.26201-.5565-.35632-.4516-.21834-.9165-.40091-1.3913-.54635-.6732-.20719-1.63-.15583-2.4615-.16628z" fill="#000" fill-rule="evenodd"/></svg>

<svg width="114" height="10" viewBox="0 0 114 10" fill="none" xmlns="http://www.w3.org/2000/svg">
<path fill-rule="evenodd" clip-rule="evenodd" d="M114 3.71845V3.78972C113.904 3.86998 113.849 4.00443 113.765 4.09853C113.504 4.38987 113.204 4.70807 112.908 4.95369C111.976 5.72825 110.987 6.39321 109.826 6.92531C109.229 7.19875 108.566 7.32774 107.9 7.51917C107.519 7.62868 107.105 7.56509 106.701 7.6617C106.357 7.74399 105.524 7.74764 105.181 7.6617C104.822 7.5716 104.499 7.64507 104.175 7.54293C103.301 7.26738 102.497 6.94586 101.799 6.47398C101.649 6.37183 101.48 6.33836 101.329 6.23643C100.874 5.93012 100.377 5.6929 99.9159 5.38127C98.5105 4.43199 96.9186 3.51654 95.3353 2.79203C94.9235 2.60358 94.4642 2.55869 93.9869 2.43571C93.7895 2.38485 93.5498 2.43464 93.3661 2.3882C93.1628 2.3368 92.4909 2.4155 92.3173 2.45947C92.0799 2.51956 91.8772 2.46797 91.6538 2.53073C91.0801 2.69186 90.4855 2.79067 89.9628 2.98206C89.6957 3.07989 89.4453 3.10404 89.1923 3.21961C87.8776 3.82027 86.5627 4.38334 85.4037 5.16748C85.052 5.40536 84.6633 5.52446 84.312 5.76134C83.8208 6.09253 83.2714 6.32682 82.7709 6.66401C82.5301 6.82633 82.172 7.10088 81.8933 7.18661C81.9004 7.19452 81.9077 7.20246 81.9148 7.21037C82.0038 7.29968 82.1151 7.31762 82.2358 7.37665C82.5314 7.52124 82.8204 7.69838 83.1348 7.85174C83.629 8.09275 84.1318 8.32274 84.7187 8.49311C85.5208 8.7259 86.7894 8.3535 87.3729 8.13679C89.5033 7.3455 91.2355 6.2008 93.1093 5.11997C93.8235 4.70795 94.4971 4.38097 95.3781 4.12228C95.7688 4.00762 96.3777 3.98004 96.7694 4.12228C97.0188 4.21281 97.2868 4.33132 97.4972 4.4786C97.8784 4.74529 98.2545 5.13543 98.439 5.61881C98.7022 6.30888 98.5745 7.80052 98.2891 8.32683C97.7971 9.23425 96.9777 9.68796 95.9133 9.96589C95.6134 10.0442 95.2135 9.97382 94.9715 9.89462C94.1945 9.64045 93.5558 9.24078 93.3233 8.39809C93.1285 7.6917 93.5605 6.83839 93.9654 6.71152C94.0879 6.67313 94.2062 6.73779 94.2865 6.75903C94.4 6.94557 94.5417 7.00268 94.5434 7.32914C94.358 7.48744 94.2178 7.71847 94.0511 7.89925C94.0577 8.57055 94.9501 8.94128 95.5922 8.7069C96.3743 8.42139 97.1678 6.69815 96.2771 5.95138C96.0943 5.79802 95.8782 5.65297 95.635 5.5713C95.3741 5.48363 95.0192 5.57477 94.8216 5.64257C94.2749 5.82804 93.7388 6.05016 93.2163 6.30769C92.2865 6.76335 91.3986 7.3762 90.4765 7.82798C89.7683 8.17499 89.0623 8.51798 88.3361 8.84943C87.6993 9.13999 87.0101 9.25282 86.2813 9.44329C86.0109 9.51391 85.747 9.47279 85.4465 9.4908C84.3208 9.55826 83.6791 9.14952 82.9208 8.77816C82.6061 8.62407 82.3092 8.49689 82.0218 8.30307C81.7786 8.13917 81.1979 7.66367 80.9302 7.61419C80.836 7.69375 80.7063 7.70132 80.5877 7.75672C80.2872 7.89708 79.9734 8.00234 79.6459 8.13679C78.5817 8.57368 77.3674 8.84907 75.9215 8.84943C75.2443 8.84959 74.5807 8.87541 74.0379 8.7069C73.4394 8.52181 72.853 8.29165 72.2828 8.01802C71.9786 7.87228 71.6759 7.72786 71.341 7.59044C71.2667 7.56001 71.1175 7.45701 70.9985 7.49542C70.9238 7.51951 70.9026 7.59348 70.8059 7.61419V7.59044C70.8675 7.54081 70.9037 7.48858 70.9129 7.37665C70.2823 6.94469 68.8987 6.35995 67.852 6.66401C67.0693 6.89144 66.3809 7.21654 65.6902 7.54293C65.154 7.79622 64.5975 7.98764 64.0635 8.23181C63.477 8.49995 62.8295 8.61834 62.1799 8.80192L61.3665 8.89693C61.1124 8.96181 60.4448 8.83605 60.2535 8.77816C60.0822 8.72635 59.9442 8.74232 59.7826 8.68314C59.0497 8.41472 58.363 8.06923 57.792 7.61419C57.5653 7.43366 57.2162 6.92593 56.9786 6.83029C56.8859 6.98182 56.725 7.09998 56.5933 7.21037C56.4578 7.32398 56.3482 7.50255 56.208 7.61419C55.9957 7.78342 55.774 7.88713 55.5445 8.04177C55.1573 8.30255 54.6853 8.51477 54.2174 8.68314C53.1382 9.07153 51.6941 8.83869 50.7499 8.49311C50.1206 8.26269 49.541 8.09776 48.9519 7.82798C48.1578 7.4644 47.3509 7.06116 46.5118 6.75903C46.2627 6.66931 45.9799 6.65689 45.7199 6.59275C45.5054 6.53985 45.1963 6.5975 45.0349 6.64026L44.6925 6.68777C44.3209 6.80508 43.9564 6.94788 43.6008 7.11535C42.6723 7.5506 41.7981 7.97353 40.8611 8.39809C40.4319 8.59252 39.9411 8.67364 39.4698 8.80192C39.0434 8.91805 38.0196 8.95934 37.5648 8.84943C37.1746 8.75512 36.8186 8.83163 36.4517 8.73065C35.5765 8.48981 34.7064 8.3487 33.926 7.99426C33.6291 7.85943 33.3147 7.75532 33.0056 7.61419C32.8654 7.55017 32.7278 7.45335 32.5561 7.42416C32.4829 7.50411 32.3905 7.5267 32.2993 7.59044C31.9825 7.81161 31.6479 8.007 31.3147 8.23181C30.6877 8.65464 29.9585 9.08163 29.217 9.34827C29.0323 9.41478 28.8669 9.39214 28.6605 9.44329C28.3112 9.52987 27.7896 9.55662 27.4191 9.46704C27.126 9.39621 26.8775 9.44918 26.6057 9.37202C24.7664 8.85014 23.2422 8.10897 21.7255 7.23412C20.8598 6.73482 19.9979 6.28586 19.0499 5.85636C18.7126 5.70355 18.1674 5.41367 17.6587 5.5713C17.199 5.71383 16.8081 6.06723 16.6526 6.54524C16.4343 7.21668 17.0289 8.31291 17.359 8.54062C17.9928 8.97789 19.1534 8.77355 19.2426 7.923C19.1705 7.84511 18.7447 7.34914 18.7289 7.28163C18.663 7.00133 19.0295 6.70774 19.2854 6.71152L19.4566 6.78278C19.624 6.89757 19.8251 7.17072 19.9061 7.37665C20.1351 7.95882 19.8887 8.68253 19.6493 9.03946C19.0629 9.91363 17.6332 10.2367 16.5242 9.70459C15.8477 9.37996 15.2067 8.94062 14.9189 8.1843C14.8285 7.94675 14.8033 7.66764 14.7477 7.4004C14.7405 7.15494 14.7334 6.90947 14.7262 6.66401C14.7262 5.26798 15.3938 4.6235 16.2674 4.2173C17.4542 3.66529 18.9176 4.40971 19.7349 4.88242C20.4015 5.26796 21.0885 5.56929 21.7255 5.99889C22.208 6.32432 22.7287 6.57983 23.2452 6.8778C24.2574 7.46176 25.3107 7.97075 26.5201 8.35058C26.7575 8.42515 27.0145 8.43291 27.2478 8.49311L27.8686 8.51686C28.1323 8.57699 28.5606 8.49598 28.789 8.42184C29.4992 8.19143 30.0561 7.8963 30.6511 7.56668C30.8913 7.43366 31.1274 7.29909 31.3575 7.18661C31.4814 7.12608 31.6623 7.10171 31.7214 6.97282C31.5392 6.9251 31.3556 6.76445 31.2077 6.66401C30.9694 6.5022 30.7085 6.39148 30.4799 6.23643C29.9816 5.89833 29.417 5.69483 28.9174 5.35751C28.4209 5.02177 27.9062 4.72031 27.3763 4.45484C26.6556 4.10135 25.952 3.72594 25.2144 3.38589C24.7512 3.17234 24.2407 3.03805 23.7589 2.86329C23.1769 2.65219 22.5436 2.62349 21.9181 2.45947C21.6555 2.39058 21.3588 2.45334 21.1048 2.3882C20.8192 2.31501 20.0647 2.42293 19.8419 2.48322C19.5774 2.55479 19.3552 2.53717 19.1142 2.62575C18.4366 2.87609 17.7782 3.18588 17.1449 3.55217C16.1802 4.10891 15.1895 4.64388 14.2768 5.2625C14.0174 5.43828 13.7451 5.53817 13.4848 5.71383C12.4996 6.3786 11.4313 6.99261 10.2527 7.42416C8.92565 7.91013 6.39661 7.7313 5.15847 7.28163C4.21716 6.93978 3.33372 6.57412 2.56853 6.04639C2.12938 5.74353 1.71197 5.47479 1.30567 5.14372C1.0934 4.97077 0.914547 4.72467 0.706346 4.54986C0.520128 4.39346 0.0455058 3.98966 0 3.71845C0.281211 3.76021 0.472075 4.05919 0.663537 4.2173C1.12373 4.59737 1.5857 4.98989 2.07623 5.33376C2.82877 5.8613 3.70282 6.23643 4.62336 6.56899C5.07895 6.73356 5.52686 6.7272 6.03605 6.85405C6.42747 6.95156 7.28262 7.03641 7.727 6.92531H8.09087C8.48009 6.82711 8.91332 6.87707 9.28952 6.75903C11.0457 6.20793 12.3581 5.18693 13.7416 4.2173C14.4602 3.7137 15.2032 3.25747 15.9249 2.76827C16.2246 2.56522 16.5428 2.44956 16.8453 2.24568C17.4785 1.81881 18.2211 1.50021 18.9857 1.22423C19.1824 1.15325 19.3525 1.16273 19.5637 1.10546C19.7739 1.04845 20.4971 0.920174 20.7623 0.986687L21.8967 1.0817C22.6185 1.26782 23.3518 1.29193 24.0158 1.53304C24.5149 1.71426 25.034 1.85814 25.5141 2.07939C27.0385 2.78203 28.4591 3.56355 29.8806 4.38358C30.6499 4.82736 31.4335 5.24029 32.2137 5.69008C32.3451 5.76588 32.9331 6.15434 33.027 6.11766C33.1597 6.08203 33.258 5.9825 33.3695 5.92762C33.8231 5.70433 34.2524 5.45446 34.6966 5.23874C35.0299 5.07693 35.3849 4.98742 35.7668 4.88242L36.1735 4.85867C36.379 4.80879 36.7816 4.80665 36.9869 4.85867L37.7574 4.88242C38.1384 4.97925 38.541 4.96808 38.8918 5.09621C39.415 5.28768 39.9232 5.52601 40.4116 5.80885C40.5554 5.89182 41.208 6.34734 41.3106 6.30769C41.5616 6.23567 41.8078 5.97751 42.0169 5.8326C42.6269 5.40966 43.281 4.98219 44.0075 4.71614C44.1984 4.64626 44.3688 4.67455 44.5854 4.62112C44.7779 4.57362 45.4619 4.51349 45.6985 4.57362C46.0262 4.6569 46.3489 4.633 46.6403 4.7399C48.1792 5.30492 49.5022 6.07756 51.1352 6.56899C52.4593 6.96748 54.0888 6.16688 54.5385 5.35751C54.7264 5.01935 54.7594 4.31875 54.6455 3.86098C54.3957 2.85759 53.9653 2.13258 53.1044 1.81809C52.1343 1.46372 51.3743 2.00751 51.0496 2.69701C51.0042 2.79317 50.9393 2.85168 50.9211 2.98206C51.1313 3.13124 51.5791 3.5994 51.6489 3.88474C51.7634 4.35237 51.2274 4.78831 50.8355 4.64488C50.1157 4.38144 49.6225 3.11478 50.0007 2.1269C50.4368 0.987779 51.3173 0.410545 52.4623 0.0602613C52.8011 -0.0433796 53.339 0.00137386 53.6609 0.0840158C53.9663 0.162406 54.2204 0.150528 54.4957 0.250297C55.1952 0.503734 55.7812 0.945591 56.3151 1.39051C56.4649 1.55679 56.6147 1.72308 56.7645 1.88936C56.8448 2.00939 56.8981 2.20068 57.0214 2.26943C57.1278 1.91259 57.5756 1.50824 57.8348 1.2955C58.4307 0.806152 59.0463 0.38546 59.8682 0.131525C61.3173 -0.316105 63.0333 0.477889 63.5926 1.343C63.8578 1.75315 64.309 2.64138 64.0849 3.40965C63.9915 3.72924 63.837 3.95759 63.6782 4.19354C63.5545 4.37738 63.2206 4.77002 62.8648 4.66863C62.7526 4.63307 62.6497 4.56787 62.5652 4.4786C62.5071 4.41867 62.4312 4.34443 62.3939 4.26481C62.0878 3.60937 63.0005 3.29824 63.0789 2.9108C62.962 2.77951 62.919 2.56496 62.822 2.41196C62.6011 2.06348 62.2481 1.86335 61.816 1.74683C61.4365 1.64452 60.9829 1.79087 60.7244 1.91311C59.9615 2.27394 59.5844 2.90455 59.3545 3.86098C59.2766 4.18544 59.2453 4.76638 59.3545 5.09621C59.4163 5.28326 59.5302 5.4675 59.6327 5.61881C59.7411 5.77856 59.9292 5.88603 60.0822 5.99889C60.6679 6.43103 61.8338 6.87954 62.8648 6.56899C64.498 6.07713 65.8197 5.30153 67.3597 4.7399C67.6513 4.6336 67.9736 4.65623 68.3015 4.57362C68.5051 4.52231 69.0492 4.55402 69.2219 4.59737C69.4621 4.65766 69.6641 4.59566 69.8641 4.66863C70.4886 4.89668 71.0886 5.23416 71.6192 5.59506C71.8146 5.72808 72.1458 6.06117 72.3898 6.0939C72.5893 5.89408 73.121 5.68172 73.3958 5.54755C73.5829 5.45617 73.7976 5.32915 73.9951 5.23874C74.2982 5.10011 74.646 5.04552 74.9797 4.95369L75.8145 4.85867H76.3068C76.6441 4.77762 77.3291 4.81805 77.6339 4.90618C78.3725 5.11973 78.9772 5.43505 79.5817 5.7851C79.84 5.93475 80.379 6.13191 80.5663 6.33145C82.9899 5.18273 85.1423 3.65588 87.5441 2.48322C88.2595 2.13403 88.9812 1.91504 89.7702 1.62806C90.3796 1.40643 91.0722 1.31281 91.7394 1.12921C92.0333 1.04833 92.3092 1.10897 92.617 1.0342C92.9988 0.941387 93.8614 0.926255 94.2437 1.0342C94.7279 1.17088 95.2187 1.26088 95.6564 1.46178C97.1136 2.13063 98.418 2.97617 99.6804 3.86098C100.527 4.45449 101.389 4.96464 102.249 5.54755C102.916 5.99993 103.614 6.39333 104.432 6.68777C104.814 6.82521 105.229 6.77392 105.652 6.8778C105.995 6.9618 106.407 6.94907 106.808 6.94907H107.193C107.678 6.82625 108.191 6.89206 108.649 6.75903C109.697 6.45428 110.691 6.15305 111.517 5.59506C112.072 5.22026 112.61 4.82862 113.122 4.40733C113.376 4.19896 113.641 3.78176 114 3.71845ZM75.2366 5.35751C75.17 5.40051 75.0525 5.35623 74.9583 5.38127C74.7779 5.42932 74.5715 5.4594 74.3804 5.5238C73.7734 5.72837 73.1582 5.91235 72.6894 6.26019V6.30769C72.9437 6.4683 73.2053 6.67157 73.4814 6.80654C73.8583 6.99087 74.2802 7.1077 74.7015 7.23412C75.7595 7.55157 77.5095 7.37696 78.4258 7.06784C78.7471 6.95945 79.0588 6.88887 79.3462 6.78278C79.4558 6.7424 79.5633 6.75409 79.6459 6.68777C79.4171 6.57374 79.2105 6.40065 79.0038 6.26019C78.5951 5.98261 77.9838 5.69998 77.5054 5.5238C76.8892 5.29685 76.0236 5.35868 75.2366 5.35751ZM36.5588 5.38127C36.44 5.45728 35.9729 5.44028 35.8096 5.50004C35.3755 5.65896 34.9509 5.89617 34.5682 6.11766C34.3986 6.21581 34.0343 6.32119 33.9902 6.54524C34.1713 6.588 34.3391 6.69727 34.5039 6.75903C34.8304 6.88115 35.167 6.96543 35.4885 7.06784C36.7054 7.45556 38.5549 7.5297 39.748 7.09159C40.1275 6.95223 40.4512 6.84571 40.754 6.64026C40.8551 6.57177 40.9392 6.60463 40.9681 6.45022C40.7834 6.34926 40.6057 6.18821 40.4116 6.0939C39.96 5.87556 39.4951 5.69299 39.0203 5.54755C38.3471 5.34036 37.3903 5.39172 36.5588 5.38127Z" fill="black"/>
</svg>
